src/lib/packages/icons/src/assets/filled/paperclip.svg

<svg width="24" height="24" viewBox="0 0 24 24" fill="none" xmlns="http://www.w3.org/2000/svg">
<path d="M10.306 22C8.32797 22 6.48696 21.245 5.11896 19.873C2.23596 16.982 2.27915 12.235 5.21515 9.29001L10.9432 3.54599C11.9382 2.54799 13.26 1.99899 14.668 1.99899C16.076 1.99899 17.3971 2.54799 18.3931 3.54599C20.4451 5.60399 20.4451 8.951 18.3931 11.008L12.637 16.779C11.453 17.965 9.38817 17.967 8.20417 16.779C6.98417 15.555 6.98417 13.565 8.20417 12.342L13.2601 7.272C13.6511 6.881 14.2831 6.87999 14.6741 7.26999C15.0661 7.65999 15.0661 8.29299 14.6761 8.68399L9.62018 13.754C9.17718 14.199 9.17718 14.922 9.62018 15.367C10.0492 15.796 10.793 15.795 11.221 15.367L16.9771 9.59601C18.2521 8.31701 18.2521 6.23701 16.9771 4.95801C15.7431 3.72101 13.5942 3.72101 12.3602 4.95801L6.63214 10.702C4.50915 12.831 4.46595 16.384 6.53595 18.46C7.52495 19.452 8.86495 19.999 10.3069 19.999C11.7869 19.999 13.2312 19.404 14.2662 18.365L19.293 13.323C19.684 12.932 20.3161 12.931 20.7071 13.321C21.0991 13.711 21.099 14.344 20.709 14.735L15.6819 19.777C14.2719 21.19 12.313 22 10.306 22Z" fill="currentColor"/>
</svg>

<svg xmlns="http://www.w3.org/2000/svg" width="24" height="24" fill="none"><path fill="currentColor" d="M10.306 22c-1.978 0-3.819-.755-5.187-2.127-2.883-2.891-2.84-7.638.096-10.583l5.728-5.744a5.223 5.223 0 0 1 3.725-1.547c1.408 0 2.73.549 3.725 1.547a5.292 5.292 0 0 1 0 7.462l-5.756 5.771c-1.184 1.186-3.249 1.188-4.433 0a3.147 3.147 0 0 1 0-4.437l5.056-5.07a1 1 0 1 1 1.416 1.412l-5.056 5.07a1.145 1.145 0 0 0 0 1.613 1.157 1.157 0 0 0 1.601 0l5.756-5.771a3.29 3.29 0 0 0 0-4.638c-1.234-1.237-3.383-1.237-4.617 0l-5.728 5.744c-2.123 2.129-2.166 5.682-.096 7.758.989.992 2.329 1.539 3.77 1.539 1.48 0 2.925-.595 3.96-1.634l5.027-5.042a1 1 0 1 1 1.416 1.412l-5.027 5.042A7.642 7.642 0 0 1 10.306 22Z"/></svg>
